archdroid-icon-theme/Archdroid-Lime/apps/scalable/xfce4-appfinder.svg

<svg fill="#CDDC39" height="48" viewBox="0 0 48 48" width="48" xmlns="http://www.w3.org/2000/svg"><path d="m22 16c-3.31 0-6 2.69-6 6s2.69 6 6 6 6-2.69 6-6-2.69-6-6-6zm16-10h-28c-2.21 0-4 1.79-4 4v28c0 2.21 1.79 4 4 4h28c2.21 0 4-1.79 4-4v-28c0-2.21-1.79-4-4-4zm-2.83 32-7.66-7.66c-1.58 1.04-3.47 1.66-5.51 1.66-5.52 0-10-4.48-10-10s4.48-10 10-10 10 4.48 10 10c0 2.04-.62 3.93-1.66 5.51l7.66 7.66z" fill="#CDDC39"/></svg>

<svg fill="#CDDC39" height="48" version="1.1" viewBox="0 0 48 48" width="48" xmlns="http://www.w3.org/2000/svg"><path d="m22 16c-3.31 0-6 2.69-6 6 0 3.31 2.69 6 6 6 3.31 0 6-2.69 6-6 0-3.31-2.69-6-6-6zM38 6L10 6C7.79 6 6 7.79 6 10l0 28c0 2.21 1.79 4 4 4l28 0c2.21 0 4-1.79 4-4L42 10C42 7.79 40.21 6 38 6ZM35.17 38L27.51 30.34C25.93 31.38 24.04 32 22 32 16.48 32 12 27.52 12 22c0-5.52 4.48-10 10-10 5.52 0 10 4.48 10 10 0 2.04-.62 3.93-1.66 5.51L38 35.17 35.17 38Z"/></svg>
